X: 101023
T: John Ferguson's
S: Darley & McCall Collection (gan ainm, #83)
Z: B.Black 
L: 1/8
M: 6/8
R: jig
K: G
d3 g2d|B2G G3|A3 Bcd|e2A A3|
|1 d3 g2d|B2G G3|A3 cAG|F2D D3 :|
|2 gfe f2d|e2d c2A|ABA cAG|F2D D3||
G3 B2c|d2c BAG|A3 Bcd|e2d cAF|
G3 B2c|d2c BAG|ABA A2G|F2D D3 :|
